X:19
T:502. Sailor on the Rock
R:reel
S:Vol 5 Mike and Mary Rafferty
H:Sligo - originally a local Leitrim tune that Co. Leitrim flute player John McKenna
H:popularized through his influential 78 RPM recording. [FC]
N:2nd part related to the Boyne Hunt
D:Michael Coleman 1891-1945; Vol 5 Mike and Mary Rafferty
Z:Lesl
M:C|
L:1/8
K:D
Bc|:d2fd BAFB|ADED FAAB|d2fd BAF2 |ABdf edBc|
d2fd BAFB|ADED FAAB|d2fd BAFA |ABdf eed2|
|faag fedf|~g3a bgeg|faaf fedB|ABdf eed2|
fa~a2 fedf|~g3a bgeg|~f3e d2dB|ABdf edBc:||



